packages/ffe-icons/icons/open/300/sm/cleaning_bucket.svg

<svg xmlns="http://www.w3.org/2000/svg" height="20" viewBox="0 -960 960 960" width="20"><path d="M360.301-68.001q-23.454 0-41.998-15.109-18.543-15.109-21.84-38.353L221.694-566.23q-3-15.307 6.154-26.538 9.153-11.231 24.739-11.231h455.211q15.585 0 24.739 11.231t6.154 26.538l-74.769 444.767q-3.304 23.244-21.886 38.353-18.581 15.109-41.806 15.109H360.301ZM359.77-120h240.46q4.616 0 8.077-3.077 3.462-3.077 4.232-7.693L683-552H277l70.461 421.23q.77 4.616 4.232 7.693Q355.154-120 359.77-120Zm120.185-202.001q45.814 0 77.929-32.083T589.999-432v-36q0-11.05-7.418-18.524-7.418-7.475-18.384-7.475-10.966 0-18.581 7.475-7.615 7.474-7.615 18.524v36q0 24.246-16.877 41.124-16.878 16.877-41.124 16.877-24.246 0-41.124-16.877-16.877-16.878-16.877-41.124v-36q0-11.05-7.418-18.524-7.418-7.475-18.384-7.475-10.966 0-18.581 7.475-7.615 7.474-7.615 18.524v36q0 45.833 32.07 77.916t77.884 32.083Zm120.09-350.384q-20.814 0-35.429-14.57-14.615-14.569-14.615-35.384 0-20.814 14.57-35.429 14.57-14.615 35.384-14.615t35.429 14.57q14.615 14.57 14.615 35.384T635.429-687q-14.57 14.615-35.384 14.615Zm-191.82-48q-35.609 0-60.917-25.082-25.307-25.082-25.307-60.884t25.082-60.917q25.082-25.115 60.884-25.115t60.917 24.874q25.115 24.875 25.115 60.9 0 35.609-24.874 60.917-24.875 25.307-60.9 25.307ZM600.23-120H348.231h263.538-11.539Z"/></svg>

<svg xmlns="http://www.w3.org/2000/svg" height="20" viewBox="0 -960 960 960" width="20"><path d="M360.3-68q-23.45 0-42-15.11-18.54-15.11-21.84-38.35l-74.77-444.77q-3-15.31 6.16-26.54Q237-604 252.59-604H707.8q15.58 0 24.74 11.23 9.15 11.23 6.15 26.54l-74.77 444.77q-3.3 23.24-21.88 38.35Q623.45-68 600.23-68H360.3Zm-.53-52h240.46q4.62 0 8.08-3.08 3.46-3.07 4.23-7.69L683-552H277l70.46 421.23q.77 4.62 4.23 7.69 3.46 3.08 8.08 3.08Zm120.18-202q45.82 0 77.93-32.08Q590-386.17 590-432v-36q0-11.05-7.42-18.52-7.42-7.48-18.38-7.48-10.97 0-18.58 7.48Q538-479.05 538-468v36q0 24.25-16.88 41.12Q504.25-374 480-374q-24.25 0-41.12-16.88Q422-407.75 422-432v-36q0-11.05-7.42-18.52-7.42-7.48-18.38-7.48-10.97 0-18.58 7.48Q370-479.05 370-468v36q0 45.83 32.07 77.92Q434.14-322 479.95-322Zm120.1-350.38q-20.82 0-35.43-14.57Q550-701.52 550-722.34q0-20.81 14.57-35.43 14.57-14.61 35.38-14.61 20.82 0 35.43 14.57Q650-743.24 650-722.43q0 20.82-14.57 35.43-14.57 14.62-35.38 14.62Zm-191.82-48q-35.61 0-60.92-25.09Q322-770.55 322-806.35q0-35.8 25.08-60.92 25.09-25.11 60.89-25.11t60.91 24.87Q494-842.63 494-806.61q0 35.61-24.88 60.92-24.87 25.31-60.89 25.31Zm192 600.38H348.23h263.54-11.54Z"/></svg>
